images/company12.svg

<svg width="41" height="40" viewBox="0 0 41 40" fill="none" xmlns="http://www.w3.org/2000/svg">
<g id="Frame" clip-path="url(#clip0_282_1435)">
<path id="Vector" d="M36.1606 4.18571C32.3892 0.414286 26.9606 0 20.332 0C13.7035 0 8.2606 0.428571 4.47489 4.2C0.732032 7.95714 0.332031 13.3857 0.332031 20C0.332031 26.6429 0.717746 32.0714 4.47489 35.8286C8.27489 39.6143 13.7035 40 20.332 40C26.9749 40 32.4035 39.6143 36.1749 35.8571C39.9463 32.0714 40.332 26.6429 40.332 20C40.332 13.3714 39.9463 7.92857 36.1606 4.17143V4.18571ZM18.8463 27.4286C18.8463 27.5714 18.732 27.6857 18.5892 27.6857H15.1892C15.1549 27.6878 15.1205 27.6826 15.0884 27.6704C15.0562 27.6582 15.027 27.6393 15.0027 27.615C14.9784 27.5907 14.9595 27.5615 14.9474 27.5294C14.9352 27.4972 14.9299 27.4629 14.932 27.4286V18.5286C14.932 18.3857 15.0463 18.2857 15.1892 18.2857H18.5892C18.732 18.2857 18.8463 18.4 18.8463 18.5286V27.4286ZM25.5177 27.4286C25.5177 27.5714 25.4035 27.6857 25.2606 27.6857H22.0177C21.9834 27.6878 21.9491 27.6826 21.9169 27.6704C21.8848 27.6582 21.8556 27.6393 21.8313 27.615C21.807 27.5907 21.7881 27.5615 21.7759 27.5294C21.7637 27.4972 21.7585 27.4629 21.7606 27.4286V19.7571C21.7606 18.4143 21.6892 17.0429 20.9892 16.3286C20.4035 15.7429 19.2749 15.6143 18.132 15.5714H12.2606C12.1177 15.5714 12.0035 15.6857 12.0035 15.8286V27.4286C12.0035 27.5714 11.8892 27.6857 11.7606 27.6857H8.50346C8.47033 27.6858 8.43754 27.6791 8.4071 27.666C8.37666 27.6529 8.34923 27.6337 8.32648 27.6096C8.30373 27.5855 8.28615 27.557 8.27482 27.5259C8.26349 27.4948 8.25865 27.4616 8.2606 27.4286V12.6429C8.2606 12.5 8.37489 12.3857 8.50346 12.3857H17.8749C20.3035 12.3857 22.8749 12.5 24.132 13.7714C25.3749 15.0143 25.5035 17.4857 25.5177 19.8857V27.4286ZM32.1892 27.4286C32.1892 27.5714 32.0749 27.6857 31.932 27.6857H28.6892C28.656 27.6858 28.6233 27.6791 28.5928 27.666C28.5624 27.6529 28.5349 27.6337 28.5122 27.6096C28.4894 27.5855 28.4719 27.557 28.4605 27.5259C28.4492 27.4948 28.4444 27.4616 28.4463 27.4286V12.6429C28.4463 12.5 28.5606 12.3857 28.6892 12.3857H31.932C32.0749 12.3857 32.1892 12.5 32.1892 12.6429V27.4286Z" fill="white"/>
</g>
<defs>
<clipPath id="clip0_282_1435">
<rect width="40" height="40" fill="white" transform="translate(0.332031)"/>
</clipPath>
</defs>
</svg>

<svg width="41" height="40" fill="none" xmlns="http://www.w3.org/2000/svg"><g clip-path="url(#a)"><path d="M36.16 4.186C32.39.414 26.96 0 20.333 0 13.703 0 8.261.429 4.475 4.2.732 7.957.332 13.386.332 20c0 6.643.386 12.071 4.143 15.829C8.275 39.614 13.704 40 20.332 40c6.643 0 12.072-.386 15.843-4.143 3.771-3.786 4.157-9.214 4.157-15.857 0-6.629-.386-12.071-4.171-15.829v.015ZM18.847 27.429a.256.256 0 0 1-.257.257h-3.4a.242.242 0 0 1-.257-.257v-8.9c0-.143.114-.243.257-.243h3.4c.143 0 .257.114.257.243v8.9Zm6.672 0a.256.256 0 0 1-.257.257h-3.243a.242.242 0 0 1-.257-.257v-7.672c0-1.343-.072-2.714-.772-3.428-.585-.586-1.714-.715-2.857-.758h-5.871a.256.256 0 0 0-.257.258v11.6c0 .142-.115.257-.243.257H8.503a.242.242 0 0 1-.242-.257V12.643c0-.143.114-.257.242-.257h9.372c2.428 0 5 .114 6.257 1.385 1.243 1.243 1.371 3.715 1.386 6.115v7.543Zm6.671 0a.256.256 0 0 1-.257.257h-3.243a.242.242 0 0 1-.243-.257V12.643c0-.143.115-.257.243-.257h3.243c.143 0 .257.114.257.257v14.786Z" fill="#fff"/></g><defs><clipPath id="a"><path fill="#fff" transform="translate(.332)" d="M0 0h40v40H0z"/></clipPath></defs></svg>
